res/box.svg

<?xml version="1.0" encoding="UTF-8" standalone="no"?><!DOCTYPE svg PUBLIC "-//W3C//DTD SVG 1.1//EN" "http://www.w3.org/Graphics/SVG/1.1/DTD/svg11.dtd"><svg width="100%" height="100%" viewBox="0 0 48 48" version="1.1" xmlns="http://www.w3.org/2000/svg" xmlns:xlink="http://www.w3.org/1999/xlink" xml:space="preserve" xmlns:serif="http://www.serif.com/" style="fill-rule:evenodd;clip-rule:evenodd;stroke-linejoin:round;stroke-miterlimit:2;"><path d="M44.063,0.188c-0.451,-0.101 -0.938,-0.163 -1.463,-0.188l-37.163,0c-0.524,0.025 -1.012,0.087 -1.462,0.188c-2.05,0.45 -3.3,1.699 -3.75,3.749c-0.125,0.525 -0.2,1.101 -0.225,1.725l0,36.638c0.025,0.625 0.1,1.2 0.225,1.725c0.45,2.025 1.7,3.275 3.75,3.75c0.5,0.1 1.037,0.163 1.613,0.188l36.862,0c0.6,-0.025 1.137,-0.088 1.612,-0.188c2.025,-0.475 3.275,-1.725 3.75,-3.75c0.101,-0.525 0.163,-1.1 0.188,-1.725l0,-36.638c-0.025,-0.649 -0.087,-1.224 -0.188,-1.724c-0.05,-0.151 -0.087,-0.288 -0.112,-0.413c-0.2,-0.625 -0.475,-1.175 -0.825,-1.65c-0.65,-0.85 -1.587,-1.413 -2.813,-1.687m-1.537,1.312c0.425,0.025 0.825,0.075 1.2,0.15c0.85,0.2 1.5,0.587 1.95,1.163l0,-0.038c0.25,0.325 0.45,0.713 0.6,1.163c0.025,0.125 0.062,0.262 0.113,0.412c0.05,0.4 0.087,0.862 0.112,1.388l0,36.525c-0.025,0.525 -0.075,1.025 -0.15,1.5l0,-0.075c-0.325,1.425 -1.2,2.3 -2.625,2.625l0.038,0c-0.401,0.075 -0.838,0.125 -1.313,0.15l-36.788,0c-0.499,-0.025 -0.962,-0.075 -1.387,-0.15l0.038,0c-1.425,-0.325 -2.301,-1.188 -2.625,-2.588l0,-0.037c-0.101,-0.425 -0.163,-0.888 -0.188,-1.388l0,-36.562c0.025,-0.526 0.087,-1 0.188,-1.425l0,-0.038c0.324,-1.425 1.2,-2.3 2.625,-2.625c0.35,-0.075 0.725,-0.125 1.125,-0.15l37.087,0m-11.4,4.162l-21.75,13.838l0,4.763l7.5,0l21.75,-13.838l0,-4.763l-7.5,0Z" style="fill:#d9944e;fill-rule:nonzero;"/><path d="M43.725,1.65c-0.375,-0.075 -0.775,-0.125 -1.2,-0.15l-37.088,0c-0.399,0.025 -0.774,0.075 -1.124,0.15c-1.425,0.325 -2.301,1.2 -2.625,2.625l0,0.037c-0.101,0.426 -0.163,0.9 -0.188,1.426l0,36.562c0.025,0.5 0.087,0.963 0.188,1.388l0,0.037c0.324,1.4 1.2,2.263 2.625,2.588l-0.038,0c0.425,0.075 0.888,0.125 1.387,0.15l36.788,0c0.475,-0.025 0.912,-0.075 1.313,-0.15l-0.038,0c1.425,-0.325 2.3,-1.2 2.625,-2.625l0,0.075c0.075,-0.475 0.125,-0.975 0.15,-1.5l0,-36.525c-0.025,-0.526 -0.062,-0.988 -0.112,-1.388c-0.051,-0.15 -0.088,-0.287 -0.113,-0.412c-0.15,-0.45 -0.35,-0.838 -0.6,-1.163l0,0.038c-0.45,-0.576 -1.1,-0.963 -1.95,-1.163m-36.225,41.813l0,-11.25l33,0l0,11.25l-33,0m0,-39.001l33,0l0,21.001l-33,0l0,-21.001Z" style="fill:#cd8c4a;fill-rule:nonzero;"/><path d="M40.5,4.462l-33,0l0,21.001l33,0l0,-21.001m-31.125,15.038l21.75,-13.838l7.5,0l0,4.763l-21.75,13.838l-7.5,0l0,-4.763m-1.875,12.713l0,11.25l33,0l0,-11.25l-33,0Z" style="fill:#aa733c;fill-rule:nonzero;"/><path d="M0,26.363c0.05,2.325 1.913,3.525 5.588,3.6l36.824,0c3.675,-0.075 5.538,-1.276 5.588,-3.6l0,-1.5c-0.05,2.325 -1.913,3.525 -5.588,3.6l-36.824,0c-3.675,-0.075 -5.538,-1.276 -5.588,-3.6l0,1.5Z" style="fill:#fff;fill-opacity:0.1;fill-rule:nonzero;"/><path d="M0,26.363l0,15.937c0.025,0.625 0.1,1.2 0.225,1.725c0.45,2.025 1.7,3.275 3.75,3.75c0.5,0.1 1.037,0.163 1.613,0.188l36.862,0c0.6,-0.025 1.137,-0.088 1.612,-0.188c2.025,-0.475 3.275,-1.725 3.75,-3.75c0.101,-0.525 0.163,-1.1 0.188,-1.725l0,-15.937c-0.05,2.325 -1.913,3.525 -5.588,3.6l-36.824,0c-3.675,-0.075 -5.538,-1.275 -5.588,-3.6Z" style="fill-opacity:0.1;fill-rule:nonzero;"/></svg>

<?xml version="1.0" encoding="UTF-8" standalone="no"?>
<!DOCTYPE svg PUBLIC "-//W3C//DTD SVG 1.1//EN" "http://www.w3.org/Graphics/SVG/1.1/DTD/svg11.dtd">
<svg width="100%" height="100%" viewBox="0 0 96 48" version="1.1" xmlns="http://www.w3.org/2000/svg" xmlns:xlink="http://www.w3.org/1999/xlink" xml:space="preserve" xmlns:serif="http://www.serif.com/" style="fill-rule:evenodd;clip-rule:evenodd;stroke-linejoin:round;stroke-miterlimit:2;">
    <path d="M44.063,0.188C43.612,0.087 43.125,0.025 42.6,0L5.437,0C4.913,0.025 4.425,0.087 3.975,0.188C1.925,0.638 0.675,1.887 0.225,3.937C0.1,4.462 0.025,5.038 0,5.662L0,42.3C0.025,42.925 0.1,43.5 0.225,44.025C0.675,46.05 1.925,47.3 3.975,47.775C4.475,47.875 5.012,47.938 5.588,47.963L42.45,47.963C43.05,47.938 43.587,47.875 44.062,47.775C46.087,47.3 47.337,46.05 47.812,44.025C47.913,43.5 47.975,42.925 48,42.3L48,5.662C47.975,5.013 47.913,4.438 47.812,3.938C47.762,3.787 47.725,3.65 47.7,3.525C47.5,2.9 47.225,2.35 46.875,1.875C46.225,1.025 45.288,0.462 44.062,0.188M42.525,1.5C42.95,1.525 43.35,1.575 43.725,1.65C44.575,1.85 45.225,2.237 45.675,2.813L45.675,2.775C45.925,3.1 46.125,3.488 46.275,3.938C46.3,4.063 46.337,4.2 46.388,4.35C46.438,4.75 46.475,5.212 46.5,5.738L46.5,42.263C46.475,42.788 46.425,43.288 46.35,43.763L46.35,43.688C46.025,45.113 45.15,45.988 43.725,46.313L43.763,46.313C43.362,46.388 42.925,46.438 42.45,46.463L5.662,46.463C5.163,46.438 4.7,46.388 4.275,46.313L4.313,46.313C2.888,45.988 2.012,45.125 1.688,43.725L1.688,43.688C1.587,43.263 1.525,42.8 1.5,42.3L1.5,5.738C1.525,5.212 1.587,4.738 1.688,4.313L1.688,4.275C2.012,2.85 2.888,1.975 4.313,1.65C4.663,1.575 5.038,1.525 5.438,1.5L42.525,1.5M31.125,5.662L9.375,19.5L9.375,24.263L16.875,24.263L38.625,10.425L38.625,5.662L31.125,5.662Z" style="fill:rgb(217,148,78);fill-rule:nonzero;"/>
    <path d="M43.725,1.65C43.35,1.575 42.95,1.525 42.525,1.5L5.437,1.5C5.038,1.525 4.663,1.575 4.313,1.65C2.888,1.975 2.012,2.85 1.688,4.275L1.688,4.312C1.587,4.738 1.525,5.212 1.5,5.738L1.5,42.3C1.525,42.8 1.587,43.263 1.688,43.688L1.688,43.725C2.012,45.125 2.888,45.988 4.313,46.313L4.275,46.313C4.7,46.388 5.163,46.438 5.662,46.463L42.45,46.463C42.925,46.438 43.362,46.388 43.763,46.313L43.725,46.313C45.15,45.988 46.025,45.113 46.35,43.688L46.35,43.763C46.425,43.288 46.475,42.788 46.5,42.263L46.5,5.738C46.475,5.212 46.438,4.75 46.388,4.35C46.337,4.2 46.3,4.063 46.275,3.938C46.125,3.488 45.925,3.1 45.675,2.775L45.675,2.813C45.225,2.237 44.575,1.85 43.725,1.65M7.5,43.463L7.5,32.213L40.5,32.213L40.5,43.463L7.5,43.463M7.5,4.462L40.5,4.462L40.5,25.463L7.5,25.463L7.5,4.462Z" style="fill:rgb(205,140,74);fill-rule:nonzero;"/>
    <path d="M40.5,4.462L7.5,4.462L7.5,25.463L40.5,25.463L40.5,4.462M9.375,19.5L31.125,5.662L38.625,5.662L38.625,10.425L16.875,24.263L9.375,24.263L9.375,19.5M7.5,32.213L7.5,43.463L40.5,43.463L40.5,32.213L7.5,32.213Z" style="fill:rgb(170,115,60);fill-rule:nonzero;"/>
    <path d="M0,26.363C0.05,28.688 1.913,29.888 5.588,29.963L42.412,29.963C46.087,29.888 47.95,28.687 48,26.363L48,24.863C47.95,27.188 46.087,28.388 42.412,28.463L5.588,28.463C1.913,28.388 0.05,27.187 0,24.863L0,26.363Z" style="fill:white;fill-opacity:0.1;fill-rule:nonzero;"/>
    <path d="M0,26.363L0,42.3C0.025,42.925 0.1,43.5 0.225,44.025C0.675,46.05 1.925,47.3 3.975,47.775C4.475,47.875 5.012,47.938 5.588,47.963L42.45,47.963C43.05,47.938 43.587,47.875 44.062,47.775C46.087,47.3 47.337,46.05 47.812,44.025C47.913,43.5 47.975,42.925 48,42.3L48,26.363C47.95,28.688 46.087,29.888 42.412,29.963L5.588,29.963C1.913,29.888 0.05,28.688 0,26.363Z" style="fill-opacity:0.1;fill-rule:nonzero;"/>
    <g transform="matrix(1,0,0,1,48,0)">
        <path d="M5.438,0C4.913,0.025 4.425,0.088 3.975,0.188C1.925,0.637 0.675,1.888 0.225,3.937C0.1,4.463 0.025,5.037 0,5.663L0,42.3C0.025,42.925 0.1,43.5 0.225,44.025C0.675,46.05 1.925,47.3 3.975,47.775C4.475,47.875 5.012,47.938 5.588,47.962L42.45,47.962C43.05,47.938 43.587,47.875 44.062,47.775C46.087,47.3 47.337,46.05 47.812,44.025C47.913,43.5 47.975,42.925 48,42.3L48,5.663C47.975,5.013 47.913,4.438 47.812,3.938C47.762,3.787 47.725,3.65 47.7,3.525C47.5,2.9 47.225,2.35 46.875,1.875C46.225,1.025 45.288,0.463 44.062,0.188C43.612,0.088 43.125,0.025 42.6,0L5.438,0M4.313,1.65C4.663,1.575 5.038,1.525 5.438,1.5L42.525,1.5C42.95,1.525 43.35,1.575 43.725,1.65C44.575,1.85 45.225,2.237 45.675,2.813L45.675,2.775C45.925,3.1 46.125,3.488 46.275,3.938C46.3,4.063 46.337,4.2 46.388,4.35C46.438,4.75 46.475,5.212 46.5,5.738L46.5,42.262C46.475,42.788 46.425,43.287 46.35,43.762L46.35,43.687C46.025,45.113 45.15,45.988 43.725,46.313L43.763,46.313C43.362,46.387 42.925,46.438 42.45,46.462L5.662,46.462C5.163,46.438 4.7,46.387 4.275,46.313L4.313,46.313C2.888,45.988 2.012,45.125 1.688,43.725L1.688,43.688C1.587,43.262 1.525,42.8 1.5,42.3L1.5,5.738C1.525,5.212 1.587,4.737 1.688,4.313L1.688,4.275C2.012,2.85 2.888,1.975 4.313,1.65M31.125,5.663L9.375,19.5L9.375,24.262L16.875,24.262L38.625,10.425L38.625,5.663L31.125,5.663Z" style="fill:rgb(217,148,78);fill-rule:nonzero;"/>
    </g>
    <g transform="matrix(1,0,0,1,48,0)">
        <path d="M5.438,1.5C5.038,1.525 4.663,1.575 4.313,1.65C2.888,1.975 2.012,2.85 1.688,4.275L1.688,4.312C1.587,4.737 1.525,5.212 1.5,5.738L1.5,42.3C1.525,42.8 1.587,43.262 1.688,43.688L1.688,43.725C2.012,45.125 2.888,45.988 4.313,46.313L4.275,46.313C4.7,46.387 5.163,46.438 5.662,46.462L42.45,46.462C42.925,46.438 43.362,46.387 43.763,46.313L43.725,46.313C45.15,45.988 46.025,45.113 46.35,43.688L46.35,43.762C46.425,43.288 46.475,42.788 46.5,42.262L46.5,5.738C46.475,5.212 46.438,4.75 46.388,4.35C46.337,4.2 46.3,4.063 46.275,3.938C46.125,3.488 45.925,3.1 45.675,2.775L45.675,2.813C45.225,2.237 44.575,1.85 43.725,1.65C43.35,1.575 42.95,1.525 42.525,1.5L5.437,1.5M7.5,25.462L7.5,4.462L40.5,4.462L40.5,25.462L7.5,25.462M7.5,32.212L40.5,32.212L40.5,43.462L7.5,43.462L7.5,32.212Z" style="fill:rgb(205,140,74);fill-rule:nonzero;"/>
    </g>
    <g transform="matrix(1,0,0,1,48,0)">
        <path d="M40.5,32.212L7.5,32.212L7.5,43.462L40.5,43.462L40.5,32.212M7.5,4.462L7.5,25.462L40.5,25.462L40.5,4.462L7.5,4.462M9.375,19.5L31.125,5.663L38.625,5.663L38.625,10.425L16.875,24.262L9.375,24.262L9.375,19.5Z" style="fill:rgb(170,115,60);fill-rule:nonzero;"/>
    </g>
    <g transform="matrix(1,0,0,1,48,0)">
        <path d="M0,26.363C0.05,28.688 1.913,29.887 5.588,29.962L42.412,29.962C46.087,29.887 47.95,28.688 48,26.363L48,24.863C47.95,27.188 46.087,28.387 42.412,28.462L5.588,28.462C1.913,28.387 0.05,27.188 0,24.863L0,26.363Z" style="fill:white;fill-opacity:0.1;fill-rule:nonzero;"/>
    </g>
    <g transform="matrix(1,0,0,1,48,0)">
        <path d="M5.588,29.962C1.913,29.887 0.05,28.688 0,26.363L0,42.3C0.025,42.925 0.1,43.5 0.225,44.025C0.675,46.05 1.925,47.3 3.975,47.775C4.475,47.875 5.012,47.938 5.588,47.962L42.45,47.962C43.05,47.938 43.587,47.875 44.062,47.775C46.087,47.3 47.337,46.05 47.812,44.025C47.913,43.5 47.975,42.925 48,42.3L48,26.363C47.95,28.688 46.087,29.887 42.412,29.962L5.588,29.962Z" style="fill-opacity:0.1;fill-rule:nonzero;"/>
    </g>
    <g id="Layer0_43_MEMBER_1_FILL" transform="matrix(1,0,0,1,48,0)">
        <path d="M5.963,0C1.987,0 0,1.988 0,5.962L0,42.038C0,46.012 1.987,48 5.963,48L42.037,48C46.013,48 48,46.012 48,42.038L48,5.962C48,1.988 46.013,0 42.037,0L5.963,0Z" style="fill-opacity:0.3;fill-rule:nonzero;"/>
    </g>
</svg>
